X:3101
T:The Diamond Jubilee
P:Captain Campbell (of Lochnell's) Reel
C:Robert Mackintosh
R:Jig (4x32)
B:RSCDS 31-1
Z:Anselm Lingnau <anselm@strathspey.org>
M:6/8
L:1/8
K:C
|:ef|"C"g3 edc|"Dm"aga "G7"fed|"C"g3 "Am"ed"D7"c|"G"Bdc "G7"BAG|\
     "C"g3 edc|"Dm"aga "G7"fed|
                               "C"efg "G7"fed|"C"ec"F"c c2:|\
E/F/|"C"GEG GEG|"F"AFA ABc|"C"GEG GFE|"Dm"DEC "G7"B,A,G,|
   "C"GEG GEG|"F"AFA "Dm"ABc|"G"Bag "G"fed|"C"ec"F"c "C"c2 "G7"E/F/|\
   "C"GEG GEG|"F"AFA ABc|
                         "C"GEG "A7"GFE|"D7"DEC "G7"B,A,G,|\
   "C"GEG "F"AFA|"C"GG"E7"B "Am"cA"F"a|"C"gfe "G7"fed|"C"ec"F"c "C"c2|]
